X: 160
T:Sweeney's Buttermilk
M:C|
C:Brendan McGlinchey
R:reel
Z:hn-reel-279
K:Bdor
FB~B2 FB~B2|dcBc AE~E2|FB~B2 ABce|afec Bage|
f2ec fcec|~B3c BAFE|FB~B2 ABce|afec B2BA:|
|:FBdc BF~F2|EAcB AE~E2|FBdc Bcdf|afec dBcA|
Bcde fB~B2|afec ABce|~f3a bf~f2|afec B2BA:|
<end>
<start>
